X: 38768
T: Strutting Jig, The
R: hornpipe
M: 4/4
K: Amajor
|:A3c e2 ea|effe c2 Bc|e2e2 cBBB|dAfe c2Be|
A/A/A Ac e2 ea|effe c2 Bc|Addc B2e2|A4 A2 e2:|
|:a3A c2ce|eaaA B2c2|a2 aA c2ce|fAec BeAA|
a3A c2ce|eaaA B2Bc|cddc B2e2|A4 A2 e2:|
|:A3c eAce|a2ac Bccc|ecAf cAac|AecA BBcB|
A3c eAce|a2ac Bccc|Addc B2e2|A4 A2 e2:|
|:a2af eaae|caac AAce|a2af eaae|caac BaAA|
a2af eada|caBa AABc|Addc B2e2|A4 A2 e2:|

